X: 1
T:the Apple Tree
R:Reel
O:Scotland
M:4/4
B:Christine Martin
K:A
A2a2 fecB | Aaga fedc |1 Bcde fBBc | \
Bcde fefa :|2 Bcde fBBa | gefg a2A2 :|
|: EAAB cBAF | EAAB cBAG | FBBc dcBA \
|1 GABc defe :|2 GEFG A2e2 :|
